X:174
M:C|
L:1/8
K:D Minor
|:c|AcAF GcGE|F2 E>D ECCc|1 AcAF GcGE|F2 ED CA,A,:|2 Ac=Bc GcEc|
|:Addf e2 Aa|gfed ecce|Addf e2 Aa|(gf)ed cAA:|
|:c|AFcF GEcE|FDGF ECCc|AFcF GEcE|F2 ED CA,A,c|AFcF GEcE|


